Suru++-Ubuntu/apps/scalable/color-calibate.svg

<svg width="256" height="256" style="clip-rule:evenodd;fill-rule:evenodd;image-rendering:optimizeQuality;shape-rendering:geometricPrecision;text-rendering:geometricPrecision" version="1.1" viewBox="0 0 256 256" xmlns="http://www.w3.org/2000/svg" xmlns:xlink="http://www.w3.org/1999/xlink">
 <defs>
  <style type="text/css"><![CDATA[
    .fil5 {fill:none}
    .fil1 {fill:#196FBA}
    .fil0 {fill:#25B2EE}
    .fil4 {fill:#793C7C}
    .fil3 {fill:#8C508C}
    .fil2 {fill:white}
   ]]></style>
  <filter id="filter939" x="-.02" y="-.03" width="1.046" height="1.05" style="color-interpolation-filters:sRGB">
   <feGaussianBlur stdDeviation="2.32"/>
  </filter>
  <filter id="filter4569" x="-.01" y="-.01" width="1.023" height="1.025" style="color-interpolation-filters:sRGB">
   <feGaussianBlur stdDeviation="1.16"/>
  </filter>
  <linearGradient id="linearGradient1108" x1="296" x2="296" y1="-212" y2="236" gradientUnits="userSpaceOnUse">
   <stop style="stop-color:#ffffff" offset="0"/>
   <stop style="stop-color:#ffffff;stop-opacity:.09803922" offset=".125"/>
   <stop style="stop-color:#000000;stop-opacity:.09803922" offset=".925"/>
   <stop style="stop-color:#000000;stop-opacity:.49803922" offset="1"/>
  </linearGradient>
  <clipPath id="clipPath1082-3-361">
   <path d="M 361.9375,-212 C 507.2348,-212 528,-191.28677 528,-46.125 V 70.125 C 528,215.28618 507.2348,236 361.9375,236 H 214.0625 C 68.7652,236 48,215.28618 48,70.125 V -46.125 C 48,-191.28677 68.7652,-212 214.0625,-212 Z" style="fill:#8c59d9"/>
  </clipPath>
 </defs>
 <path transform="matrix(1.019368,0,0,1.019368,-7.2181772e-8,8.3098661)" d="m162.53675 5.5680001c72.64865 0 83.03125 10.356615 83.03125 82.937505v58.125005c0 72.58059-10.3826 82.9375-83.03125 82.9375h-73.937496c-72.648654 0-83.031254-10.35691-83.031254-82.9375v-58.125005c0-72.58089 10.3826-82.937505 83.031254-82.937505z" style="filter:url(#filter939);opacity:.2"/>
 <path d="m165.68477 11.946967c74.05571 0 84.6394 10.557203 84.6394 84.543835v59.250778c0 73.98633-10.58369 84.54383-84.6394 84.54383h-75.369521c-74.055717 0-84.639408-10.5575-84.639408-84.54383v-59.250778c0-73.986632 10.583691-84.543835 84.639408-84.543835z" style="fill:none;opacity:.1;stroke-linecap:round;stroke-linejoin:round;stroke-width:4.0774717;stroke:#000000"/>
 <path transform="matrix(1.019368,0,0,1.019368,-7.2181772e-8,8.3098661)" d="m162.53675 3.5680001c72.64865 0 83.03125 10.356615 83.03125 82.937505v58.125005c0 72.58059-10.3826 82.9375-83.03125 82.9375h-73.937496c-72.648654 0-83.031254-10.35691-83.031254-82.9375v-58.125005c0-72.58089 10.3826-82.937505 83.031254-82.937505z" style="filter:url(#filter4569);opacity:.1"/>
 <path d="m90.315238 240.28541c-74.055712 0-84.639403-10.95275-84.639403-87.71148v-30.73535h244.64832v30.73535c0 76.75873-10.58369 87.71148-84.6394 87.71148z" style="fill:#ffffff;opacity:.1"/>
 <path d="m127.01285 11.946967v228.33844h37.98888c74.65333 0 85.32243-10.5575 85.32243-84.54383v-59.250778c0-73.986632-10.6691-84.543835-85.32243-84.543835z" style="fill:#ffffff;opacity:.1"/>
 <g transform="translate(-192.47138,-71.508575)">
  <g transform="matrix(.71881628 0 0 .71881628 106.02729 3.6563023)">
   <path transform="matrix(1.3911761,0,0,1.3911761,120.25895,94.394457)" d="m65.822266 12.535156c-0.120835 0.006926-0.285889 0.002698-0.40625 0.009766-3.688381 0.216589-7.155044 0.499672-10.41211 0.863281s-6.304673 0.807305-9.15625 1.34375c-2.851576 0.536445-5.506604 1.167247-7.978515 1.902344-1.132824 0.336879-2.095303 0.779556-3.152344 1.162109v216.59961c1.057041 0.38255 2.01952 0.82522 3.152344 1.1621 2.471911 0.73511 5.126939 1.3659 7.978515 1.90235 2.851577 0.53645 5.899184 0.98013 9.15625 1.34375 3.257066 0.36361 6.723729 0.64669 10.41211 0.86328 0.120361 0.00707 0.285415 0.00284 0.40625 0.00977v-227.16211z" style="fill:#3b97d3"/>
   <path transform="matrix(1.3911761,0,0,1.3911761,120.25895,94.394457)" d="m96.925781 11.947266h-6.611328c-9.105924 0-17.207241 0.170362-24.492187 0.58789v227.16211c7.284946 0.41753 15.386263 0.58789 24.492187 0.58789h6.611328v-228.33789z" style="fill:#23b899"/>
   <path transform="matrix(1.3911761,0,0,1.3911761,120.25895,94.394457)" d="m128.0918 11.947266h-31.166019v228.33789h31.166019v-228.33789z" style="fill:#69c186"/>
   <path transform="matrix(1.3911761,0,0,1.3911761,120.25895,94.394457)" d="m159.19531 11.947266h-31.10351v228.33789h31.10351v-228.33789z" style="fill:#f0c519"/>
   <path transform="matrix(1.3911761,0,0,1.3911761,120.25895,94.394457)" d="m190.30078 12.539062c-7.31285-0.422233-15.46355-0.591796-24.61523-0.591796h-6.49024v228.33789h6.49024c9.15168 0 17.30238-0.16956 24.61523-0.5918v-227.1543z" style="fill:#e74d3d"/>
   <path transform="matrix(1.3911761,0,0,1.3911761,120.25895,94.394457)" d="m221.4043 17.861328c-1.09471-0.399135-2.09707-0.857201-3.27344-1.207031-2.47191-0.735097-5.12694-1.365899-7.97852-1.902344-2.85157-0.536445-5.89918-0.980141-9.15625-1.34375-3.25706-0.363609-6.72373-0.646692-10.41211-0.863281-0.08389-0.004927-0.19907-0.001002-0.2832-0.00586v227.1543c0.08413-0.00486 0.19931-9.3e-4 0.2832-0.00586 3.68838-0.21659 7.15505-0.49967 10.41211-0.86328 3.25707-0.36362 6.30468-0.8073 9.15625-1.34375 2.85158-0.53645 5.50661-1.16724 7.97852-1.90235 1.17637-0.34983 2.17873-0.80789 3.27344-1.20703v-216.50976z" style="fill:#dc71ac"/>
   <path transform="matrix(1.3911761,0,0,1.3911761,120.25895,94.394457)" d="m221.4043 234.37109c1.20559-0.43957 2.49538-0.82521 3.60547-1.32812 2.11807-0.95957 4.06541-2.03819 5.85546-3.24805 1.79006-1.20986 3.4223-2.55115 4.91016-4.03711s2.83148-3.11642 4.04297-4.90429c1.21149-1.78788 2.291-3.73205 3.25195-5.84766s1.80283-4.40194 2.53907-6.87109c0.73623-2.46916 1.36696-5.12218 1.90429-7.97071 0.53734-2.84852 0.98144-5.89278 1.34571-9.14648 0.36426-3.25371 0.64821-6.71569 0.86523-10.40039 0.43404-7.36941 0.59961-15.62671 0.59961-24.875v-59.251956c0-9.248329-0.16557-17.505574-0.59961-24.875-0.21702-3.684712-0.50097-7.146679-0.86523-10.40039-0.36427-3.253712-0.80837-6.297958-1.34571-9.146485-0.53733-2.848527-1.16806-5.501544-1.90429-7.970703-0.73624-2.469159-1.57812-4.755486-2.53907-6.871094-0.96095-2.115607-2.04046-4.059783-3.25195-5.847656-1.21149-1.787872-2.55511-3.418343-4.04297-4.904297-1.48786-1.485953-3.1201-2.827257-4.91016-4.037109-1.79005-1.209852-3.73739-2.288481-5.85546-3.248047-1.11009-0.502912-2.39988-0.888558-3.60547-1.328125v216.50976z" style="fill:#945aa4"/>
   <path transform="matrix(1.3911761,0,0,1.3911761,120.25895,94.394457)" d="m34.716797 17.816406c-1.249507 0.452209-2.579159 0.85323-3.726563 1.373047-2.118069 0.959566-4.065415 2.038195-5.855468 3.248047-1.790054 1.209852-3.422296 2.551156-4.910157 4.037109-1.48786 1.485954-2.831475 3.116425-4.042968 4.904297-1.211493 1.787873-2.291004 3.732049-3.251953 5.847656-0.96095 2.115608-1.802833 4.401935-2.539063 6.871094-0.7362302 2.469159-1.3669615 5.122176-1.9042969 7.970703s-0.9814381 5.892773-1.3457031 9.146485c-0.364265 3.253711-0.6482154 6.715678-0.8652344 10.40039-0.4340379 7.369426-0.5996094 15.626671-0.5996094 24.875v59.251956c0 9.24829 0.1655715 17.50559 0.5996094 24.875 0.217019 3.6847 0.5009694 7.14668 0.8652344 10.40039 0.364265 3.2537 0.8083677 6.29796 1.3457031 9.14648 0.5373354 2.84853 1.1680667 5.50155 1.9042969 7.97071 0.73623 2.46915 1.578113 4.75548 2.539063 6.87109 0.960949 2.11561 2.04046 4.05978 3.251953 5.84766 1.211493 1.78787 2.555108 3.41833 4.042968 4.90429 1.487861 1.48596 3.120103 2.82725 4.910157 4.03711 1.790053 1.20986 3.737399 2.28848 5.855468 3.24805 1.147404 0.51982 2.477056 0.92083 3.726563 1.37305v-216.59961z" style="fill:#6063ac"/>
  </g>
 </g>
 <path transform="matrix(.50968403 0 0 .50968403 -18.788999 120)" d="M 361.9375,-212 C 507.2348,-212 528,-191.28677 528,-46.125 V 70.125 C 528,215.28618 507.2348,236 361.9375,236 H 214.0625 C 68.7652,236 48,215.28618 48,70.125 V -46.125 C 48,-191.28677 68.7652,-212 214.0625,-212 Z" clip-path="url(#clipPath1082-3-361)" style="fill:none;opacity:.4;stroke-linecap:round;stroke-linejoin:round;stroke-width:8;stroke:url(#linearGradient1108)"/>
</svg>

<svg xmlns="http://www.w3.org/2000/svg" xmlns:xlink="http://www.w3.org/1999/xlink" style="clip-rule:evenodd;fill-rule:evenodd;image-rendering:optimizeQuality;shape-rendering:geometricPrecision;text-rendering:geometricPrecision" width="256" height="256" version="1.1" viewBox="0 0 256 256" xml:space="preserve">
 <defs>
  <style id="style2" type="text/css">
   <![CDATA[
    .fil5 {fill:none}
    .fil1 {fill:#196FBA}
    .fil0 {fill:#25B2EE}
    .fil4 {fill:#793C7C}
    .fil3 {fill:#8C508C}
    .fil2 {fill:white}
   ]]>
  </style>
  <filter style="color-interpolation-filters:sRGB" id="filter939" width="1.046" height="1.05" x="-.02" y="-.03">
   <feGaussianBlur id="feGaussianBlur941" stdDeviation="2.32"/>
  </filter>
  <filter style="color-interpolation-filters:sRGB" id="filter4569" width="1.023" height="1.025" x="-.01" y="-.01">
   <feGaussianBlur id="feGaussianBlur4571" stdDeviation="1.16"/>
  </filter>
  <linearGradient id="linearGradient1108" x1="296" x2="296" y1="-212" y2="236" gradientUnits="userSpaceOnUse" xlink:href="#linearGradient1013"/>
  <linearGradient id="linearGradient1013">
   <stop id="stop1005" offset="0" style="stop-color:#ffffff"/>
   <stop style="stop-color:#ffffff;stop-opacity:0.09803922" id="stop1007" offset=".125"/>
   <stop style="stop-color:#000000;stop-opacity:0.09803922" id="stop1009" offset=".925"/>
   <stop id="stop1011" offset="1" style="stop-color:#000000;stop-opacity:0.49803922"/>
  </linearGradient>
  <clipPath id="clipPath1082-3-361" clipPathUnits="userSpaceOnUse">
   <path d="M 361.9375,-212 C 507.2348,-212 528,-191.28677 528,-46.125 V 70.125 C 528,215.28618 507.2348,236 361.9375,236 H 214.0625 C 68.7652,236 48,215.28618 48,70.125 V -46.125 C 48,-191.28677 68.7652,-212 214.0625,-212 Z" style="fill:#8c59d9"/>
  </clipPath>
  <linearGradient id="linearGradient4958">
   <stop style="stop-color:#8d91db" id="stop4960" offset="0"/>
   <stop style="stop-color:#1f225f" id="stop4962" offset="1"/>
  </linearGradient>
  <radialGradient id="radialGradient3033" cx="182.984" cy="395.049" r="148.953" fx="182.984" fy="395.049" gradientTransform="matrix(1.165761,-1.2668566,3.8886482,4.2258738,-1653.0964,-1252.7344)" gradientUnits="userSpaceOnUse" xlink:href="#linearGradient3755"/>
  <linearGradient id="linearGradient3755">
   <stop style="stop-color:#008cbe" id="stop3757" offset="0"/>
   <stop style="stop-color:#b2ffff" id="stop3759" offset="1"/>
  </linearGradient>
 </defs>
 <path style="opacity:0.2;filter:url(#filter939)" d="m 162.53675,5.5680001 c 72.64865,0 83.03125,10.3566149 83.03125,82.9375049 v 58.125005 c 0,72.58059 -10.3826,82.9375 -83.03125,82.9375 H 88.599254 C 15.9506,229.56801 5.568,219.2111 5.568,146.63051 V 88.505505 c 0,-72.58089 10.3826,-82.9375049 83.031254,-82.9375049 z" transform="matrix(1.019368,0,0,1.019368,-7.2181772e-8,8.3098661)"/>
 <path d="m 165.68477,11.946967 c 74.05571,0 84.6394,10.557203 84.6394,84.543835 v 59.250778 c 0,73.98633 -10.58369,84.54383 -84.6394,84.54383 H 90.315249 c -74.055717,0 -84.639408,-10.5575 -84.639408,-84.54383 V 96.490802 c 0,-73.986632 10.583691,-84.543835 84.639408,-84.543835 z" style="opacity:0.1;fill:none;stroke:#000000;stroke-width:4.07747173;stroke-linecap:round;stroke-linejoin:round"/>
 <path d="m 162.53675,3.5680001 c 72.64865,0 83.03125,10.3566149 83.03125,82.9375049 v 58.125005 c 0,72.58059 -10.3826,82.9375 -83.03125,82.9375 H 88.599254 C 15.9506,227.56801 5.568,217.2111 5.568,144.63051 V 86.505505 c 0,-72.58089 10.3826,-82.9375049 83.031254,-82.9375049 z" transform="matrix(1.019368,0,0,1.019368,-7.2181772e-8,8.3098661)" style="opacity:0.1;filter:url(#filter4569)"/>
 <path style="opacity:0.1;fill:#ffffff" d="m 90.315238,240.28541 c -74.055712,0 -84.639403,-10.95275 -84.639403,-87.71148 V 121.83858 H 250.32416 v 30.73535 c 0,76.75873 -10.58369,87.71148 -84.6394,87.71148 z"/>
 <path style="opacity:0.1;fill:#ffffff" d="M 127.01285,11.946967 V 240.28541 h 37.98888 c 74.65333,0 85.32243,-10.5575 85.32243,-84.54383 V 96.490802 c 0,-73.986632 -10.6691,-84.543835 -85.32243,-84.543835 z"/>
 <g transform="translate(-192.47138,-71.508575)">
  <g transform="matrix(0.71881628,0,0,0.71881628,106.02729,3.6563023)">
   <path style="fill:#3b97d3" d="M 65.822266 12.535156 C 65.701431 12.542082 65.536377 12.537854 65.416016 12.544922 C 61.727635 12.761511 58.260972 13.044594 55.003906 13.408203 C 51.74684 13.771812 48.699233 14.215508 45.847656 14.751953 C 42.99608 15.288398 40.341052 15.9192 37.869141 16.654297 C 36.736317 16.991176 35.773838 17.433853 34.716797 17.816406 L 34.716797 234.41602 C 35.773838 234.79857 36.736317 235.24124 37.869141 235.57812 C 40.341052 236.31323 42.99608 236.94402 45.847656 237.48047 C 48.699233 238.01692 51.74684 238.4606 55.003906 238.82422 C 58.260972 239.18783 61.727635 239.47091 65.416016 239.6875 C 65.536377 239.69457 65.701431 239.69034 65.822266 239.69727 L 65.822266 12.535156 z" transform="matrix(1.3911761,0,0,1.3911761,120.25895,94.394457)"/>
   <path style="fill:#23b899" d="M 96.925781 11.947266 L 90.314453 11.947266 C 81.208529 11.947266 73.107212 12.117628 65.822266 12.535156 L 65.822266 239.69727 C 73.107212 240.1148 81.208529 240.28516 90.314453 240.28516 L 96.925781 240.28516 L 96.925781 11.947266 z" transform="matrix(1.3911761,0,0,1.3911761,120.25895,94.394457)"/>
   <path style="fill:#69c186" d="M 128.0918 11.947266 L 96.925781 11.947266 L 96.925781 240.28516 L 128.0918 240.28516 L 128.0918 11.947266 z" transform="matrix(1.3911761,0,0,1.3911761,120.25895,94.394457)"/>
   <path style="fill:#f0c519" d="M 159.19531 11.947266 L 128.0918 11.947266 L 128.0918 240.28516 L 159.19531 240.28516 L 159.19531 11.947266 z" transform="matrix(1.3911761,0,0,1.3911761,120.25895,94.394457)"/>
   <path style="fill:#e74d3d" d="M 190.30078 12.539062 C 182.98793 12.116829 174.83723 11.947266 165.68555 11.947266 L 159.19531 11.947266 L 159.19531 240.28516 L 165.68555 240.28516 C 174.83723 240.28516 182.98793 240.1156 190.30078 239.69336 L 190.30078 12.539062 z" transform="matrix(1.3911761,0,0,1.3911761,120.25895,94.394457)"/>
   <path style="fill:#dc71ac" d="M 221.4043 17.861328 C 220.30959 17.462193 219.30723 17.004127 218.13086 16.654297 C 215.65895 15.9192 213.00392 15.288398 210.15234 14.751953 C 207.30077 14.215508 204.25316 13.771812 200.99609 13.408203 C 197.73903 13.044594 194.27236 12.761511 190.58398 12.544922 C 190.50009 12.539995 190.38491 12.54392 190.30078 12.539062 L 190.30078 239.69336 C 190.38491 239.6885 190.50009 239.69243 190.58398 239.6875 C 194.27236 239.47091 197.73903 239.18783 200.99609 238.82422 C 204.25316 238.4606 207.30077 238.01692 210.15234 237.48047 C 213.00392 236.94402 215.65895 236.31323 218.13086 235.57812 C 219.30723 235.22829 220.30959 234.77023 221.4043 234.37109 L 221.4043 17.861328 z" transform="matrix(1.3911761,0,0,1.3911761,120.25895,94.394457)"/>
   <path style="fill:#945aa4" d="M 221.4043 234.37109 C 222.60989 233.93152 223.89968 233.54588 225.00977 233.04297 C 227.12784 232.0834 229.07518 231.00478 230.86523 229.79492 C 232.65529 228.58506 234.28753 227.24377 235.77539 225.75781 C 237.26325 224.27185 238.60687 222.64139 239.81836 220.85352 C 241.02985 219.06564 242.10936 217.12147 243.07031 215.00586 C 244.03126 212.89025 244.87314 210.60392 245.60938 208.13477 C 246.34561 205.66561 246.97634 203.01259 247.51367 200.16406 C 248.05101 197.31554 248.49511 194.27128 248.85938 191.01758 C 249.22364 187.76387 249.50759 184.30189 249.72461 180.61719 C 250.15865 173.24778 250.32422 164.99048 250.32422 155.74219 L 250.32422 96.490234 C 250.32422 87.241905 250.15865 78.98466 249.72461 71.615234 C 249.50759 67.930522 249.22364 64.468555 248.85938 61.214844 C 248.49511 57.961132 248.05101 54.916886 247.51367 52.068359 C 246.97634 49.219832 246.34561 46.566815 245.60938 44.097656 C 244.87314 41.628497 244.03126 39.34217 243.07031 37.226562 C 242.10936 35.110955 241.02985 33.166779 239.81836 31.378906 C 238.60687 29.591034 237.26325 27.960563 235.77539 26.474609 C 234.28753 24.988656 232.65529 23.647352 230.86523 22.4375 C 229.07518 21.227648 227.12784 20.149019 225.00977 19.189453 C 223.89968 18.686541 222.60989 18.300895 221.4043 17.861328 L 221.4043 234.37109 z" transform="matrix(1.3911761,0,0,1.3911761,120.25895,94.394457)"/>
   <path style="fill:#6063ac" d="M 34.716797 17.816406 C 33.46729 18.268615 32.137638 18.669636 30.990234 19.189453 C 28.872165 20.149019 26.924819 21.227648 25.134766 22.4375 C 23.344712 23.647352 21.71247 24.988656 20.224609 26.474609 C 18.736749 27.960563 17.393134 29.591034 16.181641 31.378906 C 14.970148 33.166779 13.890637 35.110955 12.929688 37.226562 C 11.968738 39.34217 11.126855 41.628497 10.390625 44.097656 C 9.6543948 46.566815 9.0236635 49.219832 8.4863281 52.068359 C 7.9489927 54.916886 7.50489 57.961132 7.140625 61.214844 C 6.77636 64.468555 6.4924096 67.930522 6.2753906 71.615234 C 5.8413527 78.98466 5.6757812 87.241905 5.6757812 96.490234 L 5.6757812 155.74219 C 5.6757812 164.99048 5.8413527 173.24778 6.2753906 180.61719 C 6.4924096 184.30189 6.77636 187.76387 7.140625 191.01758 C 7.50489 194.27128 7.9489927 197.31554 8.4863281 200.16406 C 9.0236635 203.01259 9.6543948 205.66561 10.390625 208.13477 C 11.126855 210.60392 11.968738 212.89025 12.929688 215.00586 C 13.890637 217.12147 14.970148 219.06564 16.181641 220.85352 C 17.393134 222.64139 18.736749 224.27185 20.224609 225.75781 C 21.71247 227.24377 23.344712 228.58506 25.134766 229.79492 C 26.924819 231.00478 28.872165 232.0834 30.990234 233.04297 C 32.137638 233.56279 33.46729 233.9638 34.716797 234.41602 L 34.716797 17.816406 z" transform="matrix(1.3911761,0,0,1.3911761,120.25895,94.394457)"/>
  </g>
 </g>
 <path d="M 361.9375,-212 C 507.2348,-212 528,-191.28677 528,-46.125 V 70.125 C 528,215.28618 507.2348,236 361.9375,236 H 214.0625 C 68.7652,236 48,215.28618 48,70.125 V -46.125 C 48,-191.28677 68.7652,-212 214.0625,-212 Z" clip-path="url(#clipPath1082-3-361)" transform="matrix(0.50968403,0,0,0.50968403,-18.788999,120)" style="opacity:0.4;fill:none;stroke:url(#linearGradient1108);stroke-width:8;stroke-linecap:round;stroke-linejoin:round"/>
</svg>
